!!! OTL: Literature154
!!! Chapter: 5
!!! Section: IV
!!! Page: 382
!!! Mode: 
!!! Encoder: AR
**kern
*staff1
=1-
!!pagebreak:original
*clefG2
*k[]
*a:
*M4/4
4cc;\
16bq/LL
16ccq/JJ
16b/LL
16g/
16e/
16b/JJ
q0.332031a;\L
q0.332031cc\
16bq/LL
16ccq/JJ
q0.335938b\J
q0.332031g/L
q0.332031e/
q0.335938b/J
=2
*M3/4
8a\L
8cc\J
16bq/LL
16ccq/JJ
8b/L
8a/J
8dd\L
gq/
8a\J
=3
*M4/4
q0.199219cc/LL
16bq/LL
16ccq/JJ
q0.199219b/
q0.199219g/
q0.199219e/
q0.203125b/JJ
[4a/
4a/_
8a\L]
[8cc\J
=4
!!linebreak:original
*M2/4
4cc\_
q0.332031cc\]
16bq/LL
16ccq/JJ
64..b/LL
64..g/
q0.113281b/J
ccq/
q0.335938b-/J
=5
*M3/4
q0.332031a/L
ccq/
q0.332031b-/
q0.335938a/J
8g-/L
16cc/Jk
16r
4r
=6
q0.332031f#/L
q0.332031d#/
f#q/
q0.335938e/J
q0.332031c#/L
eq/
q0.332031d#/
[q0.335938Bn/J
q0.332031B;/]
q0.332031r
[q0.335938ccn\
=7
!!linebreak:original
*M2/4
4cc\]
16bq/LL
16ccq/JJ
16b/LL
16g/
16e/
16b/JJ
=8
*M3/4
8a\L
8cc\J
16bq/LL
16ccq/JJ
8b/L
8a/J
8dd\L
gq/
8a\J
=9
*M2/4
q0.199219cc/LL
16bq/LL
16ccq/JJ
q0.199219b/
q0.199219g/
q0.199219e/
q0.203125b/JJ
4a;/
==
*-
